X:1
T: Miss Menzies of Culdare
C:
R:Reel
Q: 232
K:A
M:4/4
L:1/8
|:e|a2 ae fe ce|a2 ae fB Bg|a2 ae fe ce|fa ec eA Ae|
a2 ae fe ce|a2 ae fB Bg|a2 ae fe ce|fa ec eA AB|
A1/2A1/2A ec ac ec|A1/2A1/2A ec fB Ba|A1/2A1/2A ec ac ec|fa ec eA AB|
A1/2A1/2A ec ac ec|A1/2A1/2A ec fB Ba|A1/2A1/2A ec ac ec|fa ec eA A:|
